img/comment.svg

<svg fill="none" height="16" viewBox="0 0 17 16" width="17" xmlns="http://www.w3.org/2000/svg"><path d="m15.7452 7.8745c.0008.90599-.2401 1.79687-.6995 2.5865-.6035.9921-1.4689 1.8111-2.5076 2.3733-1.0387.5621-2.2132.8471-3.40334.8257-1.01926.0038-2.02738-.2051-2.95547-.6125l-4.4332 1.2923 1.47774-3.8788c-.45941-.78963-.70034-1.68051-.69951-2.5865.0277-1.11141.38768-2.19129 1.03645-3.10913.64877-.91783 1.55856-1.63436 2.61943-2.06298.92809-.40743 1.9362-.61636 2.95546-.61249h.38912c1.54702.01175 3.03562.57289 4.18272 1.57669s1.8726 2.38023 2.0386 3.86753z" fill="#23719f" fill-opacity=".5"/></svg>

<svg width="17" height="16" viewBox="0 0 17 16" fill="none" xmlns="http://www.w3.org/2000/svg">
<path d="M15.7452 7.8745C15.746 8.78049 15.5051 9.67137 15.0457 10.461C14.4422 11.4531 13.5768 12.2721 12.5381 12.8343C11.4994 13.3964 10.3249 13.6814 9.13476 13.66C8.1155 13.6638 7.10738 13.4549 6.17929 13.0475L1.74609 14.3398L3.22383 10.461C2.76442 9.67137 2.52349 8.78049 2.52432 7.8745C2.55202 6.76309 2.912 5.68321 3.56077 4.76537C4.20954 3.84754 5.11933 3.13101 6.1802 2.70239C7.10829 2.29496 8.1164 2.08603 9.13566 2.0899H9.52478C11.0718 2.10165 12.5604 2.66279 13.7075 3.66659C14.8546 4.67039 15.5801 6.04682 15.7461 7.53412L15.7452 7.8745Z" fill="#23719F" fill-opacity="0.5"/>
</svg>
